X: 32694
T: Policeman's Request, The
R: reel
M: 4/4
K: Edorian
|:BEED EFGA|Beed edBA|D3F ADFA|(3Bcd AF DEFA|
BEED EFGA|Beed edBA|D3F ADFA|(3Bcd AF FE E2:|
|:(3Bcd ef g3e|fedc dABd|AFdF eFdF|(3Bcd ef edBA|
(3Bcd ef g3e|fedc dABd|A2FA DFAd|(3Bcd AF FE E2:|

